!!!OTL: Cantilena potatoria. Zechlied.
!!!OTL-incipit:MIHI EST PROPOSITUM
!!!COM: J. A. P. Schulz
!!!ARE: Europa, Mitteleuropa, Deutschland
!!!SCT: F0477
!!!TXL: @@DE, @@LAT
!!!YEM: Copyright 1995, estate of Helmut Schaffrath.
**kern	**text	**text
*ICvox	*	*
*M2/4	*	*
*k[]	*	*
*C:	*	*
=1	=1	=1
!LO:TX:a:t=Mit feuer.	!	!
!LO:TX:a:t=P:only the highest voice encoded:problem	!	!
{8cc/	1._Mi-	1._Ich
8g	-hi	will
8g	est	einſt,
16eL	pro-	bei
16fJ	.	.
=2	=2	=2
8g	-po-	Ja
8g	-si-	und
4g}	-tum	Nein!
=3	=3	=3
{16aL	in	vor
16gJ	.	.
16fL	ta-	dem
16eJ	.	.
16fL	-ber-	Ʒa-
16gJ	.	.
16aL	-na	-pfen
16bJ	.	.
=4	=4	=4
4cc	mo-	ſter-
4c}	-ri.	-ben.
=5	=5	=5
{8ee/	Vi-	Al-
8ee/	-nam	-les,
8dd/	sit	meinen
8dd/	ap-	.
=6	=6	=6
8cc/	-po-	Wein
8cc/	-si-	nur
4b/}	-tum	nicht,
=7	=7	=7
{8a	mo-	laß'
8g	-ri-	ich
8b/	-en-	fro-
8cc/	-tis	-hen
=8	=8	=8
4dd/	o-	Er-
4g}	-ri!	-ben.
=9	=9	=9
{8g	ut	Nach
8g	di-	der
8a	-cant,	letʒ-
16b/L	cum	-ten
16ccJ	.	.
=10	=10	=10
8dd/	ve-	Oelung
8dd/	-ne-	.
4g}	-rint,	ſoll
=11	=11	=11
{8cc/	an-	He-
8cc/	-ge-	-fen
8cc/	-lo-	noch
8cc/	-rum	mich
=12	=12	=12
4b/	cho-	färben.
4g}	-ri	.
=13	=13	=13
{8cc	Do-	Dann
8g	-us	ʒertrümm're
8cc	sit	.
8g	pro-	.
=14	=14	=14
8ee	-pi-	mein
8cc	-ti-	Po-
4g}	-us	-kal
=15	=15	=15
{8cc	hu-	in
8g	-ie	ʒehn-
8e	po-	-tau-
16eL	ta-	-ſend
16fJ	.	.
=16	=16	=16
4g	-to-	Scherben!
8c	-ri!	.
8r}	.	.
==	==	==
!!!AGN: Studenten -, Trink -, Zech - Lied
!!!ONB: ESAC (Essen Associative Code) Database: FINK
!!!AMT: simple duple
!!!AIN: vox
!!!EED: Helmut Schaffrath
!!!EEV: 1.0
!!!GTL: Studentenlieder
!!Text: Gualterus de Mapes*, Buerger (Verteutscht)
!!@@COMMENT:"*) Die Autorſchaft des Genannten läßt ſich unerwünſchter Weiſe nicht beweiſen. Die meiſten der ihm ſpäter
!!ʒugeſchriebenen Gedichte ſind aber doch ʒuverläſſig Opfer der akademiſchen Lieder aus dem 18ten Jahrhunderte 
!!bis in's läte, und in vieler Hinſicht merkwürdig."
!!@@END:
!!!source: Musikalischer Hausschatz der Deutschen. Eine Sammlung von über 1000 Liedern und Gesängen mit Singstimmen und Klavierbegleitung. Leipzig, Litterarisches Verlags-Haus.
!!!page: 303
!!!URL-scan: https://www.digitale-sammlungen.de/en/view/bsb11144622?page=292
!!!ENC: Anna Maria Matuszewska
!!!EEV: 2024/08/01
*-	*-	*-
